X:1
T:Snow-Flake -- Hornpipe
R:hornpipe
B:Cole's 1000 Fiddle Tunes
M:C|
L:1/8
K:A
UE2|(vA2{B}AG) Acec|BABd Bcdc|Bcde fgaf|eagf edcB|
(vA2{B}AG) Acec|BABc defg|{b}agae fdBG|A2a2A2:|
|:vcd|efec ceag|fedc defg|bgfe dcBA|G"4"eBG Ecd^d|
efed ceag|fedc defg|{b}agae fdBG|A2c2A2:|
